X:1
T:Title
%%score { ( 1 3 ) | 2 }
L:1/8
M:4/4
K:F
V:1 treble nm="Grand Piano"
V:3 treble 
V:2 bass 
V:1
 z4 z2[Q:1/4=92] [FA][GB] | dcAG F2 EF | AGED C3 C | FEFG ABcA | %4
[M:9/8] G2 d- d [Ec]2- [Ec][Fc][F^c] |[M:4/4] [Fe][Fd][DFB][B,DG] F2 EF | AGED C3 C | %7
[M:5/4] D[DF][DB][Fd] [Fc]2 [EG]>[EA] [CF]2- |[M:1/4] [CF][Ac] | %9
[M:4/4] [_A=B] [G_B]2 [Be]- [Be]ed[Ec] | [EB] [FA]2 [Fd]- [Fd]dc[FA] | z8 | z4 z .G3 | %13
 =B _B2 [Be]- [Be]ed[Ec] | [EB] [FA]2 [Fd]- [Fd]dcA | %15
[M:19/8] FD[DF][DB][Fd] [Fc]2 [EG]>[EA] [CF]3 z z z z z z2 |] %16
V:2
 z4 z2 [F,C][F,C] | [F,B,F][F,A,F][F,CF][F,B,C] [F,A,C]2 [C,G,C][C,A,C] | %2
 [C,E,B,][C,E,B,][C,G,B,][C,E,B,] [F,A,]3 [F,A,] | %3
 [F,A,C][F,G,C][F,A,C][F,B,C][K:treble] [F,CF][G,CF][A,CF][F,CF] | %4
[M:9/8] [G,CE]2 [G,=B,F]- [G,B,F][K:bass] [C,G,C]2- [C,G,C][F,A,][F,A,] | %5
[M:4/4] [B,,B,][B,,B,]B,,B,, [C,A,C]2 [C,G,C][C,A,C] | %6
 [C,E,B,][C,E,B,][C,G,B,][C,E,B,] [F,A,]3 [F,A,] | %7
[M:5/4] [B,,F,B,][B,,F,][B,,F,][B,,B,] [C,A,]2 [C,B,]>[C,B,] [F,A,]2- |[M:1/4] [F,A,][F,C] | %9
[M:4/4] [F,C] [E,C]2 [C,C]- [C,C] [G,C]2 [C,C] | [C,C] [F,C]2 [C,A,]- [C,A,] [F,A,F]2 [C,C] | %11
 [C,A,C][G,B,C][G,B,C][C,E,B,] [C,E,B,] [F,A,]2 [C,C]- | %12
 [C,C][K:treble] [F,CF]2 [A,CF]- [A,CF] [CE]2 [A,CF] | %13
 [_A,CF][K:bass] [G,CE]2 [C,C]- [C,C] [G,C]2 [C,C] | [C,C] [F,C]2 [C,A,]- [C,A,] [F,A,F]2 [F,CF] | %15
[M:19/8] [F,A,C][B,,F,B,][B,,F,][B,,F,][B,,B,] [C,A,]2 [C,B,]>[C,B,] [F,A,]3 z z z z z z2 |] %16
V:3
 x8 | x8 | x8 | x8 |[M:9/8] x9 |[M:4/4] x8 | x8 |[M:5/4] x10 |[M:1/4] x2 |[M:4/4] z4 z .B3 | x8 | %11
 FEFE D C2 [EB]- | [EB] A2 c- c z B,c | z4 z .B3 | x8 |[M:19/8] x19 |] %16

